X:1
T:Title
%%score { ( 1 3 5 ) | ( 2 4 6 ) }
L:1/8
M:3/4
K:Db
V:1 treble nm="Grand Piano"
V:3 treble 
V:5 treble 
V:2 treble 
V:4 treble 
V:6 treble 
V:1
 z2 z[Q:1/4=94] d cB | [A,FA]3 F EG | [A,DF]3 A =GA | [Gc]4[K:bass][K:treble] z2 | %4
 [A,FA]3 [A,DF] [A,EF][A,EF] | [DF]3 F dd | [=Ac]4[K:bass][K:treble] z2 | [FA]4 z2 | %8
 [A,DF]3 [B,D] [_Fd][Fd] | [Fd]3 A [A,DF][K:bass][G,CE] |[M:3/8] [F,D]3 | Ae=d |[M:3/4] e4 z2 | %13
 z D Dd cd | e4 z2 | [Af]4 z2 | [FA]4 z2 | z A, z D dB |[M:13/16] z D z d[Ec]e3/2 | %19
[M:3/8] d-[_Fd-][=Fd] |] %20
V:2
 z2 z F AG | D,A,, D,D CE | D,A,, D,[K:treble]F _F=F | A,3[K:treble] G EG | D,A,, D,D, C,C, | %5
 B,F,[K:treble] B,D FB | =A,3[K:treble] =A z G | z F, A,D CE | D,A,, D,B,, [=A,,=G,][A,,G,] | %9
 z2 z F A,,A,, |[M:3/8] D,3 | FGF |[M:3/4] G4 z2 | F4[K:bass][K:treble] z2 | G4 z2 | %15
 [D,D]D, z F [D,D]2 | [D,D]D, z D [A,,A,]2 | [D,A,]D, D,2 [B,D][K:treble][DG] | %18
[M:13/16] F-[A,F-]F.F3/2 z/ G3/2 |[M:3/8][K:bass] [D,A,][D,=G,][D,A,] |] %20
V:3
 x6 | x6 | x6 | z[K:bass] A,, E,[K:treble]B GB | x6 | x6 | z[K:bass] C, F,[K:treble]c [Bd]B | %7
 .A,2 z F EG | x6 | x5[K:bass] x |[M:3/8] x3 | x3 |[M:3/4] z C CA dB | A4 z2 | z C z A de | %15
 z D z d [Ac][GB] | z D z F [CE][EG] | [DF]4 z2 |[M:13/16] A/-A/-A-<A z/ z/ z/ z/ z/ z | %19
[M:3/8] F z z |] %20
V:4
 x6 | x6 | x3[K:treble] x3 | .E,2 z2[K:treble] z2 | x6 | x2[K:treble] x4 | %6
 .F,2 z2[K:treble] [G,B,]2 | A,,4 z2 | x6 | [A,,A,]4 z2 |[M:3/8] x3 | x3 |[M:3/4] z A, A,G FG | %13
 z[K:bass] D, D,[K:treble]F E[A,F] | [A,C]A, z G FG | z2 D,2 z2 | z2 D,2 z2 | z2 z2 G,2[K:treble] | %18
[M:13/16] .[A,D]3/2 z/ A,-<A,A,/-A,-<A, |[M:3/8][K:bass] x3 |] %20
V:5
 x6 | x6 | x6 | x[K:bass] x2[K:treble] x3 | x6 | x6 | x[K:bass] x2[K:treble] x3 | x6 | x6 | %9
 x5[K:bass] x |[M:3/8] x3 | x3 |[M:3/4] x6 | x6 | z2 C2 z2 | z2 D2 z2 | z2 A,2 z2 | z2 A,2 z2 | %18
[M:13/16] z/ z/ z D-<D z/ z/ z/ z |[M:3/8] x3 |] %20
V:6
 x6 | x6 | x3[K:treble] x3 | x3[K:treble] x3 | x6 | x2[K:treble] x4 | x3[K:treble] x3 | x6 | x6 | %9
 x6 |[M:3/8] x3 | x3 |[M:3/4] x6 | x[K:bass] x2[K:treble] x3 | z2 A,2 [A,C]2 | x6 | x6 | %17
 x5[K:treble] x |[M:13/16] x13/2 |[M:3/8][K:bass] x3 |] %20

